X: 32168
T: Peter Street
R: reel
M: 4/4
K: Gmajor
|:G2 (3BAG dG G2|dBgB fBeB|dG G2 dG (3Bcd|ADcD BDAD|
G2 (3BAG dG G2|dBgB fBeB|dedB g3e|dBAB G4:|
|:D2 (3FED AD D2|ADcD BDAD|G2 (3BAG dG G2|dBgB fBeB|
d^cdB g3e|d^cdB g3e|dBgf edcB|AGFE DEFD:|

